packages/icons/src/SVG/clone.svg

<!-- Generated by IcoMoon.io -->
<svg version="1.1" xmlns="http://www.w3.org/2000/svg" width="12" height="12" viewBox="0 0 12 12">
<title>clone</title>
<path d="M0 3h1v-2h3v-1h-4v3z"></path>
<path d="M3 5h1v-1h7v7h-7v-1h-1v2h9v-9h-9v2z"></path>
<path d="M6 1v-1h4v2h-1v-1h-3z"></path>
<path d="M0 5h1v2h5v-2l3 2.5-3 2.5v-2h-6v-3z"></path>
</svg>

<svg width="12" height="12" viewBox="0 0 12 12" >
<path d="M0 3H1V1H4V0H0V3Z" />
<path d="M3 5H4V4H11V11H4V10H3V12H12V3H3V5Z" />
<path d="M6 1V0H10V2H9V1H6Z" />
<path d="M0 5H1V7H6V5L9 7.5L6 10V8H0V5Z" />
</svg>
